systematic/svg/Capcom - CP System II-content (Rental).svg

<?xml version="1.0" encoding="UTF-8" standalone="no"?>
<svg
   xmlns:dc="http://purl.org/dc/elements/1.1/"
   xmlns:cc="http://creativecommons.org/ns#"
   xmlns:rdf="http://www.w3.org/1999/02/22-rdf-syntax-ns#"
   xmlns:svg="http://www.w3.org/2000/svg"
   xmlns="http://www.w3.org/2000/svg"
   viewBox="0 0 320 320"
   height="320"
   width="320"
   xml:space="preserve"
   version="1.1"
   id="svg2"><metadata
     id="metadata8"><rdf:RDF><cc:Work
         rdf:about=""><dc:format>image/svg+xml</dc:format><dc:type
           rdf:resource="http://purl.org/dc/dcmitype/StillImage" /></cc:Work></rdf:RDF></metadata><defs
     id="defs6"><clipPath
       id="clipPath16"
       clipPathUnits="userSpaceOnUse"><path
         id="path18"
         d="M 0,256 256,256 256,0 0,0 0,256 Z" /></clipPath><clipPath
       id="clipPath24"
       clipPathUnits="userSpaceOnUse"><path
         id="path26"
         d="M 40,252 216,252 216,4 40,4 40,252 Z" /></clipPath></defs><g
     transform="matrix(1.25,0,0,-1.25,0,320)"
     id="g10"><g
       id="g12"><g
         clip-path="url(#clipPath16)"
         id="g14"><g
           id="g20"><g
             id="g22" /><g
             id="g28"><g
               style="opacity:0.5"
               id="g30"
               clip-path="url(#clipPath24)"><g
                 id="g32"
                 transform="translate(128,252)"><path
                   id="path34"
                   style="fill:#ffffff;fill-opacity:1;fill-rule:nonzero;stroke:none"
                   d="M 0,0 C -38.956,0 -69.292,-6.141 -81.15,-16.427 -85.503,-20.203 -88,-25.697 -88,-31.501 L -88,-228 c 0,-11.028 8.972,-20 20,-20 l 68,0 68,0 c 11.028,0 20,8.972 20,20 l 0,196.499 c 0,5.804 -2.496,11.298 -6.85,15.074 C 69.292,-6.141 38.955,0 0,0" /></g></g></g></g><g
           transform="translate(203.9082,229.5298)"
           id="g36"><path
             id="path38"
             style="fill:#eac500;fill-opacity:1;fill-rule:nonzero;stroke:none"
             d="m 0,0 c -6.824,5.919 -28.829,14.47 -75.908,14.47 -47.079,0 -69.084,-8.551 -75.908,-14.47 -2.615,-2.268 -4.092,-5.569 -4.092,-9.031 l 0,-196.499 c 0,-6.627 5.372,-12 12,-12 l 68,0 68,0 c 6.627,0 12,5.373 12,12 l 0,196.499 C 4.092,-5.569 2.615,-2.268 0,0" /></g><g
           transform="translate(80,232)"
           id="g40"><path
             id="path42"
             style="fill:#eac500;fill-opacity:1;fill-rule:nonzero;stroke:none"
             d="m 0,0 c 0,-2.209 -1.791,-4 -4,-4 -2.209,0 -4,1.791 -4,4 0,2.209 1.791,4 4,4 2.209,0 4,-1.791 4,-4" /></g><g
           transform="translate(78,232)"
           id="g44"><path
             id="path46"
             style="fill:#d4a600;fill-opacity:1;fill-rule:nonzero;stroke:none"
             d="m 0,0 c 0,-1.104 -0.896,-2 -2,-2 -1.104,0 -2,0.896 -2,2 0,1.104 0.896,2 2,2 1.104,0 2,-0.896 2,-2" /></g><g
           transform="translate(63.6372,235.6523)"
           id="g48"><path
             id="path50"
             style="fill:#d4a600;fill-opacity:1;fill-rule:nonzero;stroke:none"
             d="m 0,0 c -5.615,-2.066 -9.362,-4.229 -11.545,-6.123 -2.615,-2.268 -4.092,-5.569 -4.092,-9.03 l 0,-188.499 8,28 L 0,0 Z" /></g><g
           transform="translate(192,235.6523)"
           id="g52"><path
             id="path54"
             style="fill:#d4a600;fill-opacity:1;fill-rule:nonzero;stroke:none"
             d="m 0,0 c 5.615,-2.066 9.362,-4.229 11.546,-6.123 2.614,-2.268 4.091,-5.569 4.091,-9.03 l 0,-188.499 -8,28 L 0,0 Z" /></g><g
           transform="translate(205.7139,31.4502)"
           id="g56"><path
             id="path58"
             style="fill:#d4a600;fill-opacity:1;fill-rule:nonzero;stroke:none"
             d="m 0,0 -8,28 -0.064,0.228 -0.011,0.235 -0.004,0.087 -139.633,0 -0.004,-0.087 -0.01,-0.235 -0.065,-0.228 -8,-28 -1.923,-6.73 0,-0.72 c 0,-6.627 5.373,-12 12,-12 l 68,0 68,0 c 6.47,0 11.729,5.123 11.977,11.532 L 0,0 Z" /></g><g
           transform="translate(74.7842,96)"
           id="g60"><path
             id="path62"
             style="fill:#333333;fill-opacity:1;fill-rule:nonzero;stroke:none"
             d="m 0,0 -26.784,0 0,-2 25.264,0 c 0.489,0.678 0.999,1.343 1.52,2" /></g><g
           transform="translate(78.2896,100)"
           id="g64"><path
             id="path66"
             style="fill:#333333;fill-opacity:1;fill-rule:nonzero;stroke:none"
             d="m 0,0 -30.29,0 0,-2 28.455,0 c 0.593,0.68 1.206,1.346 1.835,2" /></g><g
           transform="translate(87.7891,108)"
           id="g68"><path
             id="path70"
             style="fill:#333333;fill-opacity:1;fill-rule:nonzero;stroke:none"
             d="m 0,0 -39.789,0 0,-2 37.006,0 C -1.88,-1.31 -0.948,-0.646 0,0" /></g><g
           transform="translate(82.5376,104)"
           id="g72"><path
             id="path74"
             style="fill:#333333;fill-opacity:1;fill-rule:nonzero;stroke:none"
             d="m 0,0 -34.538,0 0,-2 32.31,0 c 0.724,0.682 1.465,1.35 2.228,2" /></g><g
           transform="translate(71.9019,92)"
           id="g76"><path
             id="path78"
             style="fill:#333333;fill-opacity:1;fill-rule:nonzero;stroke:none"
             d="m 0,0 -23.902,0 0,-2 22.669,0 c 0.397,0.674 0.804,1.343 1.233,2" /></g><g
           transform="translate(65.1133,76)"
           id="g80"><path
             id="path82"
             style="fill:#333333;fill-opacity:1;fill-rule:nonzero;stroke:none"
             d="m 0,0 -17.113,0 0,-2 16.703,0 c 0.119,0.672 0.263,1.336 0.41,2" /></g><g
           transform="translate(66.1846,80)"
           id="g84"><path
             id="path86"
             style="fill:#333333;fill-opacity:1;fill-rule:nonzero;stroke:none"
             d="m 0,0 -18.185,0 0,-2 17.606,0 C -0.398,-1.329 -0.21,-0.661 0,0" /></g><g
           transform="translate(67.6563,84)"
           id="g88"><path
             id="path90"
             style="fill:#333333;fill-opacity:1;fill-rule:nonzero;stroke:none"
             d="m 0,0 -19.656,0 0,-2 18.858,0 c 0.247,0.674 0.52,1.338 0.798,2" /></g><g
           transform="translate(69.5547,88)"
           id="g92"><path
             id="path94"
             style="fill:#333333;fill-opacity:1;fill-rule:nonzero;stroke:none"
             d="m 0,0 -21.555,0 0,-2 20.554,0 c 0.318,0.674 0.652,1.34 1.001,2" /></g><g
           transform="translate(181.0049,96)"
           id="g96"><path
             id="path98"
             style="fill:#333333;fill-opacity:1;fill-rule:nonzero;stroke:none"
             d="m 0,0 26.784,0 0,-2 L 1.52,-2 C 1.031,-1.322 0.521,-0.657 0,0" /></g><g
           transform="translate(177.5,100)"
           id="g100"><path
             id="path102"
             style="fill:#333333;fill-opacity:1;fill-rule:nonzero;stroke:none"
             d="m 0,0 30.289,0 0,-2 -28.454,0 C 1.242,-1.32 0.629,-0.654 0,0" /></g><g
           transform="translate(168,108)"
           id="g104"><path
             id="path106"
             style="fill:#333333;fill-opacity:1;fill-rule:nonzero;stroke:none"
             d="m 0,0 39.789,0 0,-2 -37.006,0 C 1.881,-1.31 0.948,-0.647 0,0" /></g><g
           transform="translate(173.252,104)"
           id="g108"><path
             id="path110"
             style="fill:#333333;fill-opacity:1;fill-rule:nonzero;stroke:none"
             d="m 0,0 34.537,0 0,-2 -32.309,0 C 1.504,-1.318 0.763,-0.65 0,0" /></g><g
           transform="translate(183.8877,92)"
           id="g112"><path
             id="path114"
             style="fill:#333333;fill-opacity:1;fill-rule:nonzero;stroke:none"
             d="m 0,0 23.901,0 0,-2 -22.668,0 C 0.836,-1.326 0.429,-0.657 0,0" /></g><g
           transform="translate(190.6758,76)"
           id="g116"><path
             id="path118"
             style="fill:#333333;fill-opacity:1;fill-rule:nonzero;stroke:none"
             d="m 0,0 17.113,0 0,-2 L 0.41,-2 C 0.291,-1.328 0.147,-0.663 0,0" /></g><g
           transform="translate(189.6045,80)"
           id="g120"><path
             id="path122"
             style="fill:#333333;fill-opacity:1;fill-rule:nonzero;stroke:none"
             d="m 0,0 18.185,0 0,-2 -17.606,0 C 0.398,-1.329 0.21,-0.661 0,0" /></g><g
           transform="translate(188.1328,84)"
           id="g124"><path
             id="path126"
             style="fill:#333333;fill-opacity:1;fill-rule:nonzero;stroke:none"
             d="m 0,0 19.656,0 0,-2 -18.857,0 C 0.551,-1.326 0.278,-0.662 0,0" /></g><g
           transform="translate(186.2344,88)"
           id="g128"><path
             id="path130"
             style="fill:#333333;fill-opacity:1;fill-rule:nonzero;stroke:none"
             d="m 0,0 21.555,0 0,-2 -20.553,0 C 0.684,-1.326 0.35,-0.66 0,0" /></g><g
           transform="translate(180,132)"
           id="g132"><path
             id="path134"
             style="fill:#ffffff;fill-opacity:1;fill-rule:nonzero;stroke:none"
             d="m 0,0 -32,0 c -2.209,0 -4,1.791 -4,4 l 0,16 c 0,2.209 1.791,4 4,4 l 32,0 c 2.209,0 4,-1.791 4,-4 L 4,4 C 4,1.791 2.209,0 0,0" /></g><g
           transform="translate(128,136)"
           id="g136"><path
             id="path138"
             style="fill:#ffffff;fill-opacity:1;fill-rule:nonzero;stroke:none"
             d="m 0,0 -56,0 c -2.209,0 -4,1.791 -4,4 l 0,72 c 0,2.209 1.791,4 4,4 l 56,0 c 2.209,0 4,-1.791 4,-4 L 4,4 C 4,1.791 2.209,0 0,0" /></g><path
           id="path140"
           style="fill:#333333;fill-opacity:1;fill-rule:nonzero;stroke:none"
           d="m 72,225 -8,0 0,-1 8,0 0,1 z" /><path
           id="path142"
           style="fill:#333333;fill-opacity:1;fill-rule:nonzero;stroke:none"
           d="m 184,224 8,0 0,1 -8,0 0,-1 z" /><g
           transform="translate(57.5151,90)"
           id="g144"><path
             id="path146"
             style="fill:#191919;fill-opacity:1;fill-rule:nonzero;stroke:none"
             d="m 0,0 13.364,0 c 0.397,0.674 0.804,1.343 1.234,2 L 0.087,2 0,0 Z" /></g><g
           transform="translate(58.2979,108)"
           id="g148"><path
             id="path150"
             style="fill:#191919;fill-opacity:1;fill-rule:nonzero;stroke:none"
             d="m 0,0 -0.087,-2 27.006,0 c 0.902,0.69 1.835,1.354 2.783,2 L 0,0 Z" /></g><g
           transform="translate(58.0371,102)"
           id="g152"><path
             id="path154"
             style="fill:#191919;fill-opacity:1;fill-rule:nonzero;stroke:none"
             d="m 0,0 22.483,0 c 0.724,0.682 1.465,1.35 2.228,2 L 0.087,2 0,0 Z" /></g><g
           transform="translate(57.8628,98)"
           id="g156"><path
             id="path158"
             style="fill:#191919;fill-opacity:1;fill-rule:nonzero;stroke:none"
             d="m 0,0 18.802,0 c 0.594,0.68 1.206,1.346 1.835,2 L 0.087,2 0,0 Z" /></g><g
           transform="translate(57.689,94)"
           id="g160"><path
             id="path162"
             style="fill:#191919;fill-opacity:1;fill-rule:nonzero;stroke:none"
             d="m 0,0 15.787,0 c 0.487,0.678 0.998,1.343 1.519,2 L 0.087,2 0,0 Z" /></g><g
           transform="translate(198.4854,90)"
           id="g164"><path
             id="path166"
             style="fill:#191919;fill-opacity:1;fill-rule:nonzero;stroke:none"
             d="m 0,0 -13.364,0 c -0.398,0.674 -0.805,1.343 -1.234,2 L -0.087,2 0,0 Z" /></g><g
           transform="translate(197.7021,108)"
           id="g168"><path
             id="path170"
             style="fill:#191919;fill-opacity:1;fill-rule:nonzero;stroke:none"
             d="m 0,0 0.087,-2 -27.006,0 c -0.902,0.69 -1.835,1.353 -2.783,2 L 0,0 Z" /></g><g
           transform="translate(197.9629,102)"
           id="g172"><path
             id="path174"
             style="fill:#191919;fill-opacity:1;fill-rule:nonzero;stroke:none"
             d="m 0,0 -22.483,0 c -0.724,0.682 -1.465,1.35 -2.228,2 L -0.087,2 0,0 Z" /></g><g
           transform="translate(198.1367,98)"
           id="g176"><path
             id="path178"
             style="fill:#191919;fill-opacity:1;fill-rule:nonzero;stroke:none"
             d="m 0,0 -18.802,0 c -0.593,0.68 -1.206,1.346 -1.835,2 L -0.087,2 0,0 Z" /></g><g
           transform="translate(198.3105,94)"
           id="g180"><path
             id="path182"
             style="fill:#191919;fill-opacity:1;fill-rule:nonzero;stroke:none"
             d="m 0,0 -15.786,0 c -0.488,0.678 -0.998,1.343 -1.52,2 L -0.087,2 0,0 Z" /></g></g></g></g></svg>

<?xml version="1.0" encoding="UTF-8" standalone="no"?>
<svg
   xmlns:dc="http://purl.org/dc/elements/1.1/"
   xmlns:cc="http://creativecommons.org/ns#"
   xmlns:rdf="http://www.w3.org/1999/02/22-rdf-syntax-ns#"
   xmlns:svg="http://www.w3.org/2000/svg"
   xmlns="http://www.w3.org/2000/svg"
   viewBox="0 0 234.66665 330.66665"
   height="330.66666"
   width="234.66666"
   xml:space="preserve"
   id="svg2"
   version="1.1"><metadata
     id="metadata8"><rdf:RDF><cc:Work
         rdf:about=""><dc:format>image/svg+xml</dc:format><dc:type
           rdf:resource="http://purl.org/dc/dcmitype/StillImage" /></cc:Work></rdf:RDF></metadata><defs
     id="defs6"><clipPath
       id="clipPath18"
       clipPathUnits="userSpaceOnUse"><path
         id="path16"
         d="M 0,256 H 256 V 0 H 0 Z" /></clipPath><clipPath
       id="clipPath26"
       clipPathUnits="userSpaceOnUse"><path
         id="path24"
         d="M 40,252 H 216 V 4 H 40 Z" /></clipPath></defs><g
     transform="matrix(1.3333333,0,0,-1.3333333,-53.333332,335.99999)"
     id="g10"><g
       id="g12"><g
         clip-path="url(#clipPath18)"
         id="g14"><g
           id="g20"><g
             id="g22" /><g
             id="g34"><g
               style="opacity:0.5"
               id="g32"
               clip-path="url(#clipPath26)"><g
                 id="g30"
                 transform="translate(128,252)"><path
                   id="path28"
                   style="fill:#ffffff;fill-opacity:1;fill-rule:nonzero;stroke:none"
                   d="M 0,0 C -38.956,0 -69.292,-6.141 -81.15,-16.427 -85.503,-20.203 -88,-25.697 -88,-31.501 V -228 c 0,-11.028 8.972,-20 20,-20 H 0 68 c 11.028,0 20,8.972 20,20 v 196.499 c 0,5.804 -2.496,11.298 -6.85,15.074 C 69.292,-6.141 38.955,0 0,0" /></g></g></g></g><g
           transform="translate(203.9082,229.5298)"
           id="g36"><path
             id="path38"
             style="fill:#eac500;fill-opacity:1;fill-rule:nonzero;stroke:none"
             d="m 0,0 c -6.824,5.919 -28.829,14.47 -75.908,14.47 -47.079,0 -69.084,-8.551 -75.908,-14.47 -2.615,-2.268 -4.092,-5.569 -4.092,-9.031 V -205.53 c 0,-6.627 5.372,-12 12,-12 h 68 68 c 6.627,0 12,5.373 12,12 V -9.031 C 4.092,-5.569 2.615,-2.268 0,0" /></g><g
           transform="translate(80,232)"
           id="g40"><path
             id="path42"
             style="fill:#eac500;fill-opacity:1;fill-rule:nonzero;stroke:none"
             d="m 0,0 c 0,-2.209 -1.791,-4 -4,-4 -2.209,0 -4,1.791 -4,4 0,2.209 1.791,4 4,4 2.209,0 4,-1.791 4,-4" /></g><g
           transform="translate(78,232)"
           id="g44"><path
             id="path46"
             style="fill:#d4a600;fill-opacity:1;fill-rule:nonzero;stroke:none"
             d="m 0,0 c 0,-1.104 -0.896,-2 -2,-2 -1.104,0 -2,0.896 -2,2 0,1.104 0.896,2 2,2 1.104,0 2,-0.896 2,-2" /></g><g
           transform="translate(63.6372,235.6523)"
           id="g48"><path
             id="path50"
             style="fill:#d4a600;fill-opacity:1;fill-rule:nonzero;stroke:none"
             d="m 0,0 c -5.615,-2.066 -9.362,-4.229 -11.545,-6.123 -2.615,-2.268 -4.092,-5.569 -4.092,-9.03 v -188.499 l 8,28 z" /></g><g
           transform="translate(192,235.6523)"
           id="g52"><path
             id="path54"
             style="fill:#d4a600;fill-opacity:1;fill-rule:nonzero;stroke:none"
             d="m 0,0 c 5.615,-2.066 9.362,-4.229 11.546,-6.123 2.614,-2.268 4.091,-5.569 4.091,-9.03 v -188.499 l -8,28 z" /></g><g
           transform="translate(205.7139,31.4502)"
           id="g56"><path
             id="path58"
             style="fill:#d4a600;fill-opacity:1;fill-rule:nonzero;stroke:none"
             d="m 0,0 -8,28 -0.064,0.228 -0.011,0.235 -0.004,0.087 h -139.633 l -0.004,-0.087 -0.01,-0.235 -0.065,-0.228 -8,-28 -1.923,-6.73 v -0.72 c 0,-6.627 5.373,-12 12,-12 h 68 68 c 6.47,0 11.729,5.123 11.977,11.532 z" /></g><g
           transform="translate(74.7842,96)"
           id="g60"><path
             id="path62"
             style="fill:#333333;fill-opacity:1;fill-rule:nonzero;stroke:none"
             d="M 0,0 H -26.784 V -2 H -1.52 c 0.489,0.678 0.999,1.343 1.52,2" /></g><g
           transform="translate(78.2896,100)"
           id="g64"><path
             id="path66"
             style="fill:#333333;fill-opacity:1;fill-rule:nonzero;stroke:none"
             d="M 0,0 H -30.29 V -2 H -1.835 C -1.242,-1.32 -0.629,-0.654 0,0" /></g><g
           transform="translate(87.7891,108)"
           id="g68"><path
             id="path70"
             style="fill:#333333;fill-opacity:1;fill-rule:nonzero;stroke:none"
             d="M 0,0 H -39.789 V -2 H -2.783 C -1.88,-1.31 -0.948,-0.646 0,0" /></g><g
           transform="translate(82.5376,104)"
           id="g72"><path
             id="path74"
             style="fill:#333333;fill-opacity:1;fill-rule:nonzero;stroke:none"
             d="m 0,0 h -34.538 v -2 h 32.31 c 0.724,0.682 1.465,1.35 2.228,2" /></g><g
           transform="translate(71.9019,92)"
           id="g76"><path
             id="path78"
             style="fill:#333333;fill-opacity:1;fill-rule:nonzero;stroke:none"
             d="M 0,0 H -23.902 V -2 H -1.233 C -0.836,-1.326 -0.429,-0.657 0,0" /></g><g
           transform="translate(65.1133,76)"
           id="g80"><path
             id="path82"
             style="fill:#333333;fill-opacity:1;fill-rule:nonzero;stroke:none"
             d="M 0,0 H -17.113 V -2 H -0.41 c 0.119,0.672 0.263,1.336 0.41,2" /></g><g
           transform="translate(66.1846,80)"
           id="g84"><path
             id="path86"
             style="fill:#333333;fill-opacity:1;fill-rule:nonzero;stroke:none"
             d="M 0,0 H -18.185 V -2 H -0.579 C -0.398,-1.329 -0.21,-0.661 0,0" /></g><g
           transform="translate(67.6563,84)"
           id="g88"><path
             id="path90"
             style="fill:#333333;fill-opacity:1;fill-rule:nonzero;stroke:none"
             d="m 0,0 h -19.656 v -2 h 18.858 c 0.247,0.674 0.52,1.338 0.798,2" /></g><g
           transform="translate(69.5547,88)"
           id="g92"><path
             id="path94"
             style="fill:#333333;fill-opacity:1;fill-rule:nonzero;stroke:none"
             d="M 0,0 H -21.555 V -2 H -1.001 C -0.683,-1.326 -0.349,-0.66 0,0" /></g><g
           transform="translate(181.0049,96)"
           id="g96"><path
             id="path98"
             style="fill:#333333;fill-opacity:1;fill-rule:nonzero;stroke:none"
             d="M 0,0 H 26.784 V -2 H 1.52 C 1.031,-1.322 0.521,-0.657 0,0" /></g><g
           transform="translate(177.5,100)"
           id="g100"><path
             id="path102"
             style="fill:#333333;fill-opacity:1;fill-rule:nonzero;stroke:none"
             d="M 0,0 H 30.289 V -2 H 1.835 C 1.242,-1.32 0.629,-0.654 0,0" /></g><g
           transform="translate(168,108)"
           id="g104"><path
             id="path106"
             style="fill:#333333;fill-opacity:1;fill-rule:nonzero;stroke:none"
             d="M 0,0 H 39.789 V -2 H 2.783 C 1.881,-1.31 0.948,-0.647 0,0" /></g><g
           transform="translate(173.252,104)"
           id="g108"><path
             id="path110"
             style="fill:#333333;fill-opacity:1;fill-rule:nonzero;stroke:none"
             d="M 0,0 H 34.537 V -2 H 2.228 C 1.504,-1.318 0.763,-0.65 0,0" /></g><g
           transform="translate(183.8877,92)"
           id="g112"><path
             id="path114"
             style="fill:#333333;fill-opacity:1;fill-rule:nonzero;stroke:none"
             d="M 0,0 H 23.901 V -2 H 1.233 C 0.836,-1.326 0.429,-0.657 0,0" /></g><g
           transform="translate(190.6758,76)"
           id="g116"><path
             id="path118"
             style="fill:#333333;fill-opacity:1;fill-rule:nonzero;stroke:none"
             d="M 0,0 H 17.113 V -2 H 0.41 C 0.291,-1.328 0.147,-0.663 0,0" /></g><g
           transform="translate(189.6045,80)"
           id="g120"><path
             id="path122"
             style="fill:#333333;fill-opacity:1;fill-rule:nonzero;stroke:none"
             d="M 0,0 H 18.185 V -2 H 0.579 C 0.398,-1.329 0.21,-0.661 0,0" /></g><g
           transform="translate(188.1328,84)"
           id="g124"><path
             id="path126"
             style="fill:#333333;fill-opacity:1;fill-rule:nonzero;stroke:none"
             d="M 0,0 H 19.656 V -2 H 0.799 C 0.551,-1.326 0.278,-0.662 0,0" /></g><g
           transform="translate(186.2344,88)"
           id="g128"><path
             id="path130"
             style="fill:#333333;fill-opacity:1;fill-rule:nonzero;stroke:none"
             d="M 0,0 H 21.555 V -2 H 1.002 C 0.684,-1.326 0.35,-0.66 0,0" /></g><g
           transform="translate(180,132)"
           id="g132"><path
             id="path134"
             style="fill:#ffffff;fill-opacity:1;fill-rule:nonzero;stroke:none"
             d="m 0,0 h -32 c -2.209,0 -4,1.791 -4,4 v 16 c 0,2.209 1.791,4 4,4 H 0 c 2.209,0 4,-1.791 4,-4 V 4 C 4,1.791 2.209,0 0,0" /></g><g
           transform="translate(128,136)"
           id="g136"><path
             id="path138"
             style="fill:#ffffff;fill-opacity:1;fill-rule:nonzero;stroke:none"
             d="m 0,0 h -56 c -2.209,0 -4,1.791 -4,4 v 72 c 0,2.209 1.791,4 4,4 H 0 c 2.209,0 4,-1.791 4,-4 V 4 C 4,1.791 2.209,0 0,0" /></g><path
           id="path140"
           style="fill:#333333;fill-opacity:1;fill-rule:nonzero;stroke:none"
           d="m 72,225 h -8 v -1 h 8 z" /><path
           id="path142"
           style="fill:#333333;fill-opacity:1;fill-rule:nonzero;stroke:none"
           d="m 184,224 h 8 v 1 h -8 z" /><g
           transform="translate(57.5151,90)"
           id="g144"><path
             id="path146"
             style="fill:#191919;fill-opacity:1;fill-rule:nonzero;stroke:none"
             d="m 0,0 h 13.364 c 0.397,0.674 0.804,1.343 1.234,2 H 0.087 Z" /></g><g
           transform="translate(58.2979,108)"
           id="g148"><path
             id="path150"
             style="fill:#191919;fill-opacity:1;fill-rule:nonzero;stroke:none"
             d="m 0,0 -0.087,-2 h 27.006 c 0.902,0.69 1.835,1.354 2.783,2 z" /></g><g
           transform="translate(58.0371,102)"
           id="g152"><path
             id="path154"
             style="fill:#191919;fill-opacity:1;fill-rule:nonzero;stroke:none"
             d="m 0,0 h 22.483 c 0.724,0.682 1.465,1.35 2.228,2 H 0.087 Z" /></g><g
           transform="translate(57.8628,98)"
           id="g156"><path
             id="path158"
             style="fill:#191919;fill-opacity:1;fill-rule:nonzero;stroke:none"
             d="m 0,0 h 18.802 c 0.594,0.68 1.206,1.346 1.835,2 H 0.087 Z" /></g><g
           transform="translate(57.689,94)"
           id="g160"><path
             id="path162"
             style="fill:#191919;fill-opacity:1;fill-rule:nonzero;stroke:none"
             d="m 0,0 h 15.787 c 0.487,0.678 0.998,1.343 1.519,2 H 0.087 Z" /></g><g
           transform="translate(198.4854,90)"
           id="g164"><path
             id="path166"
             style="fill:#191919;fill-opacity:1;fill-rule:nonzero;stroke:none"
             d="m 0,0 h -13.364 c -0.398,0.674 -0.805,1.343 -1.234,2 h 14.511 z" /></g><g
           transform="translate(197.7021,108)"
           id="g168"><path
             id="path170"
             style="fill:#191919;fill-opacity:1;fill-rule:nonzero;stroke:none"
             d="m 0,0 0.087,-2 h -27.006 c -0.902,0.69 -1.835,1.353 -2.783,2 z" /></g><g
           transform="translate(197.9629,102)"
           id="g172"><path
             id="path174"
             style="fill:#191919;fill-opacity:1;fill-rule:nonzero;stroke:none"
             d="m 0,0 h -22.483 c -0.724,0.682 -1.465,1.35 -2.228,2 h 24.624 z" /></g><g
           transform="translate(198.1367,98)"
           id="g176"><path
             id="path178"
             style="fill:#191919;fill-opacity:1;fill-rule:nonzero;stroke:none"
             d="m 0,0 h -18.802 c -0.593,0.68 -1.206,1.346 -1.835,2 h 20.55 z" /></g><g
           transform="translate(198.3105,94)"
           id="g180"><path
             id="path182"
             style="fill:#191919;fill-opacity:1;fill-rule:nonzero;stroke:none"
             d="m 0,0 h -15.786 c -0.488,0.678 -0.998,1.343 -1.52,2 h 17.219 z" /></g></g></g></g></svg>
